build/system/PersonLimitsOutline.svg

<svg xmlns="http://www.w3.org/2000/svg" fill="none" viewBox="0 0 24 24" focusable="false"><path d="M0 0H24V24H0z"/><path fill="#74767B" fill-rule="evenodd" d="M7.56456 7.96802C7.26365 5.32002 9.33497 3 12 3C14.6651 3 16.7364 5.32002 16.4355 7.96803L16.1734 10.274C15.9322 12.3966 14.1363 14 12 14C9.86377 14 8.06781 12.3966 7.8266 10.274L7.56456 7.96802ZM15.1438 7.82124L14.8817 10.1272C14.7152 11.5928 13.4751 12.7 12 12.7C10.5249 12.7 9.28484 11.5928 9.11829 10.1272L8.85625 7.82124C8.64297 5.94439 10.1111 4.3 12 4.3C13.889 4.3 15.3571 5.94439 15.1438 7.82124ZM14.318 20.682C12.5607 18.9246 12.5607 16.0754 14.318 14.318C16.0754 12.5607 18.9246 12.5607 20.682 14.318C22.4393 16.0754 22.4393 18.9246 20.682 20.682C18.9246 22.4393 16.0754 22.4393 14.318 20.682ZM15.7435 14.8244C16.9852 14.0074 18.6705 14.145 19.7627 15.2373C20.855 16.3295 20.9926 18.0148 20.1756 19.2565L15.7435 14.8244ZM10.1464 15C7.33419 15 4.89931 16.9532 4.28926 19.6984L4.18932 20.1481C4.09217 20.5853 4.42482 21 4.87265 21L11.6571 21C12.0161 21 12.3071 20.709 12.3071 20.35C12.3071 19.991 12.0161 19.7 11.6571 19.7L5.62966 19.7C6.20474 17.6982 8.04051 16.3 10.1464 16.3L11.6571 16.3C12.0161 16.3 12.3071 16.009 12.3071 15.65C12.3071 15.291 12.0161 15 11.6571 15L10.1464 15ZM14.8243 15.7437C14.0074 16.9854 14.1451 18.6706 15.2373 19.7627C16.3294 20.8549 18.0147 20.9926 19.2563 20.1757L14.8243 15.7437Z"/></svg>

<svg xmlns="http://www.w3.org/2000/svg" fill="none" viewBox="0 0 24 24" focusable="false"><path fill="#74767B" fill-rule="evenodd" d="M12 3C9.33 3 7.26 5.32 7.56 7.96l.26 2.31A4.21 4.21 0 0 0 12 14c2.13 0 3.93-1.61 4.17-3.73l.26-2.31A4.46 4.46 0 0 0 12 3m2.88 7.12.26-2.3c.21-1.88-1.26-3.53-3.14-3.53-1.89 0-3.36 1.65-3.15 3.53l.26 2.3A2.91 2.91 0 0 0 12 12.7c1.47 0 2.71-1.11 2.88-2.58m-.57 10.56a4.52 4.52 0 0 1 0-6.37 4.52 4.52 0 0 1 6.37 0 4.52 4.52 0 0 1 0 6.37 4.52 4.52 0 0 1-6.37 0m1.43-5.86a3.2 3.2 0 0 1 4.02.41 3.2 3.2 0 0 1 .41 4.02zm-5.6.18c-2.81 0-5.25 1.95-5.86 4.69l-.1.45c-.09.44.24.86.69.86h6.78c.36 0 .65-.3.65-.65 0-.36-.29-.65-.65-.65H5.62a4.71 4.71 0 0 1 4.52-3.41h1.51c.36 0 .65-.29.65-.64 0-.36-.29-.65-.65-.65zm4.68.74a3.2 3.2 0 0 0 .41 4.02 3.2 3.2 0 0 0 4.02.41z"/></svg>
